img/arrow.svg

<svg fill="none" height="60" viewBox="0 0 25 60" width="25" xmlns="http://www.w3.org/2000/svg"><path d="m25 46.882c-3.3611 2.8163-5.9226 5.2514-7.6843 7.3054-1.7385 2.054-3.0366 3.9915-3.8943 5.8126h-1.5647c-1.1126-2.0963-2.5382-4.1292-4.27673-6.0985-1.71534-1.9693-4.242-4.3197-7.57997-7.0513v-2.4458c4.65925 1.9905 8.24061 4.0763 10.7441 6.2573v-50.6617h3.5118v50.6617c2.2253-1.6093 3.8827-2.7316 4.9722-3.3668 1.1127-.6353 3.0366-1.5776 5.7719-2.8269z" fill="#f61f8d"/></svg>

<svg width="25" height="60" viewBox="0 0 25 60" fill="none" xmlns="http://www.w3.org/2000/svg">
<path d="M25 46.882C21.6389 49.6983 19.0774 52.1334 17.3157 54.1874C15.5772 56.2414 14.2791 58.1789 13.4214 60H11.8567C10.7441 57.9037 9.3185 55.8708 7.57997 53.9015C5.86463 51.9322 3.33797 49.5818 0 46.8502V44.4044C4.65925 46.3949 8.24061 48.4807 10.7441 50.6617L10.7441 0L14.2559 0L14.2559 50.6617C16.4812 49.0524 18.1386 47.9301 19.2281 47.2949C20.3408 46.6596 22.2647 45.7173 25 44.468V46.882Z" fill="#E63732"/>
</svg>
